static/f/plat/ios.svg

<?xml version="1.0" encoding="UTF-8"?>
<svg version="1.1" viewBox="0 0 14 6.946" xmlns="http://www.w3.org/2000/svg" xmlns:xlink="http://www.w3.org/1999/xlink">
<g transform="matrix(1.0032 0 0 1.0032 0 -.068806)" clip-path="url(#b)">
<path d="m0.064875 6.8814h1.154v-4.9126h-1.154zm0.57469-5.5568c0.3615 0 0.6442-0.27808 0.6442-0.62566 0-0.35223-0.2827-0.6303-0.6442-0.6303-0.35686 0-0.63956 0.27808-0.63956 0.6303 0 0.3476 0.2827 0.62566 0.63956 0.62566zm4.4215-1.2421c-1.9511 0-3.1747 1.3301-3.1747 3.4574 0 2.1273 1.2235 3.4528 3.1747 3.4528 1.9465 0 3.17-1.3255 3.17-3.4528 0-2.1273-1.2235-3.4574-3.17-3.4574zm0 1.0196c1.1911 0 1.9511 0.94545 1.9511 2.4378 0 1.4877-0.76005 2.4332-1.9511 2.4332-1.1957 0-1.9511-0.94545-1.9511-2.4332 0-1.4923 0.75543-2.4378 1.9511-2.4378zm3.6568 3.8977c0.05098 1.2328 1.0613 1.9929 2.6 1.9929 1.6175 0 2.6371-0.79714 2.6371-2.067 0-0.99642-0.5747-1.5572-1.9326-1.8677l-0.7693-0.17612c-0.8204-0.19464-1.1587-0.45418-1.1587-0.89909 0-0.55615 0.5098-0.92691 1.2652-0.92691 0.7647 0 1.2884 0.3754 1.344 1.0011h1.1401c-0.0278-1.1772-1.001-1.9744-2.4748-1.9744-1.4552 0-2.4888 0.80177-2.4888 1.9882 0 0.95472 0.58396 1.548 1.8166 1.8307l0.8667 0.20392c0.8435 0.19929 1.1864 0.47736 1.1864 0.95935 0 0.55614-0.5608 0.95472-1.3671 0.95472-0.8157 0-1.432-0.4032-1.5062-1.0196h-1.1586z" fill="url(#a)"/>
</g>
<defs>
<clipPath id="b">
<rect width="14.119" height="7" fill="#fff"/>
</clipPath>
<linearGradient id="a" x1=".64982" x2="12.669" y1=".71473" y2="6.0622" gradientUnits="userSpaceOnUse">
<stop stop-color="#3367ff" offset="0"/>
<stop stop-color="#8be250" offset=".71187"/>
<stop stop-color="#dbf141" offset="1"/>
</linearGradient>
</defs>
</svg>

<svg viewBox="0 0 16 16" xmlns="http://www.w3.org/2000/svg">
<path d="M.06 6.88h1.16V1.97H.06zm.58-5.56c.36 0 .64-.27.64-.62A.63.63 0 0 0 .64.07.63.63 0 0 0 0 .7c0 .35.28.62.64.62zM5.06.08C3.11.08 1.9 1.41 1.9 3.54s1.2 3.45 3.16 3.45 3.17-1.32 3.17-3.45S7.01.08 5.06.08zm0 1.02c1.2 0 1.95.95 1.95 2.44s-.76 2.43-1.95 2.43c-1.2 0-1.95-.94-1.95-2.43 0-1.5.76-2.44 1.95-2.44zM8.72 5c.05 1.23 1.06 2 2.6 2 1.62 0 2.63-.8 2.63-2.07 0-1-.57-1.56-1.93-1.87l-.77-.18c-.82-.2-1.16-.45-1.16-.9 0-.55.51-.92 1.27-.92s1.29.37 1.34 1h1.14c-.02-1.18-1-1.98-2.47-1.98-1.46 0-2.49.8-2.49 2 0 .95.58 1.54 1.82 1.82l.86.2c.85.2 1.19.48 1.19.96 0 .56-.56.96-1.37.96S9.95 5.62 9.88 5H8.72z" fill="url(#a)" style="fill:url(#a)" transform="translate(0 3.95) scale(1.14651)"/>
<defs>
<linearGradient id="a" x1=".65" x2="12.67" y1=".71" y2="6.06" gradientUnits="userSpaceOnUse">
<stop stop-color="#3367ff" offset="0"/>
<stop stop-color="#8be250" offset=".71"/>
<stop stop-color="#dbf141" offset="1"/>
</linearGradient>
</defs>
</svg>
